images/3232887.svg

<?xml version="1.0" encoding="UTF-8"?>
<svg xmlns="http://www.w3.org/2000/svg" xmlns:xlink="http://www.w3.org/1999/xlink" width="300pt" height="300pt" viewBox="0 0 300 300" version="1.1">
<defs>
<g>
<symbol overflow="visible" id="glyph0-0">
<path style="stroke:none;" d="M 0.75 2.65625 L 0.75 -10.578125 L 8.25 -10.578125 L 8.25 2.65625 Z M 1.59375 1.8125 L 7.40625 1.8125 L 7.40625 -9.734375 L 1.59375 -9.734375 Z M 1.59375 1.8125 "/>
</symbol>
<symbol overflow="visible" id="glyph0-1">
<path style="stroke:none;" d="M 1.46875 -10.9375 L 3.46875 -10.9375 L 8.3125 -1.78125 L 8.3125 -10.9375 L 9.75 -10.9375 L 9.75 0 L 7.75 0 L 2.90625 -9.140625 L 2.90625 0 L 1.46875 0 Z M 1.46875 -10.9375 "/>
</symbol>
<symbol overflow="visible" id="glyph0-2">
<path style="stroke:none;" d="M 1.46875 -10.9375 L 2.953125 -10.9375 L 2.953125 -6.453125 L 8.328125 -6.453125 L 8.328125 -10.9375 L 9.8125 -10.9375 L 9.8125 0 L 8.328125 0 L 8.328125 -5.203125 L 2.953125 -5.203125 L 2.953125 0 L 1.46875 0 Z M 1.46875 -10.9375 "/>
</symbol>
<symbol overflow="visible" id="glyph0-3">
<path style="stroke:none;" d="M 9.65625 -10.09375 L 9.65625 -8.53125 C 9.15625 -9 8.625 -9.347656 8.0625 -9.578125 C 7.5 -9.804688 6.898438 -9.921875 6.265625 -9.921875 C 5.015625 -9.921875 4.054688 -9.535156 3.390625 -8.765625 C 2.734375 -8.003906 2.40625 -6.898438 2.40625 -5.453125 C 2.40625 -4.015625 2.734375 -2.910156 3.390625 -2.140625 C 4.054688 -1.378906 5.015625 -1 6.265625 -1 C 6.898438 -1 7.5 -1.113281 8.0625 -1.34375 C 8.625 -1.570312 9.15625 -1.921875 9.65625 -2.390625 L 9.65625 -0.84375 C 9.144531 -0.488281 8.597656 -0.222656 8.015625 -0.046875 C 7.441406 0.128906 6.832031 0.21875 6.1875 0.21875 C 4.53125 0.21875 3.222656 -0.285156 2.265625 -1.296875 C 1.316406 -2.316406 0.84375 -3.703125 0.84375 -5.453125 C 0.84375 -7.210938 1.316406 -8.597656 2.265625 -9.609375 C 3.222656 -10.628906 4.53125 -11.140625 6.1875 -11.140625 C 6.832031 -11.140625 7.445312 -11.050781 8.03125 -10.875 C 8.613281 -10.695312 9.15625 -10.4375 9.65625 -10.09375 Z M 9.65625 -10.09375 "/>
</symbol>
<symbol overflow="visible" id="glyph0-4">
<path style="stroke:none;" d="M 1.40625 -11.390625 L 2.765625 -11.390625 L 2.765625 0 L 1.40625 0 Z M 1.40625 -11.390625 "/>
</symbol>
</g>
</defs>
<g id="surface46177">
<rect x="0" y="0" width="300" height="300" style="fill:rgb(100%,100%,100%);fill-opacity:1;stroke:none;"/>
<path style="fill:none;stroke-width:1.2;stroke-linecap:butt;stroke-linejoin:miter;stroke:rgb(0%,0%,0%);stroke-opacity:1;stroke-miterlimit:10;" d="M 189.839844 72.265625 L 199.203125 87.140625 "/>
<path style="fill:none;stroke-width:1.2;stroke-linecap:butt;stroke-linejoin:miter;stroke:rgb(0%,0%,100%);stroke-opacity:1;stroke-miterlimit:10;" d="M 199.203125 87.140625 L 208.566406 102.015625 "/>
<path style="fill:none;stroke-width:1.2;stroke-linecap:butt;stroke-linejoin:miter;stroke:rgb(0%,0%,100%);stroke-opacity:1;stroke-miterlimit:10;" d="M 208.566406 102.015625 L 200.367188 117.5625 "/>
<path style="fill:none;stroke-width:1.2;stroke-linecap:butt;stroke-linejoin:miter;stroke:rgb(0%,0%,0%);stroke-opacity:1;stroke-miterlimit:10;" d="M 200.367188 117.5625 L 192.164062 133.109375 "/>
<path style=" stroke:none;fill-rule:nonzero;fill:rgb(100%,100%,100%);fill-opacity:1;" d="M 197.566406 93.015625 L 220.566406 93.015625 L 220.566406 111.015625 L 197.566406 111.015625 Z M 197.566406 93.015625 "/>
<g style="fill:rgb(0%,0%,100%);fill-opacity:1;">
  <use xlink:href="#glyph0-1" x="197.566406" y="106.629883"/>
  <use xlink:href="#glyph0-2" x="208.541992" y="106.629883"/>
</g>
<path style="fill:none;stroke-width:1.2;stroke-linecap:butt;stroke-linejoin:miter;stroke:rgb(0%,0%,0%);stroke-opacity:1;stroke-miterlimit:10;" d="M 192.164062 133.109375 L 174.601562 133.78125 "/>
<path style="fill:none;stroke-width:1.2;stroke-linecap:butt;stroke-linejoin:miter;stroke:rgb(0%,0%,100%);stroke-opacity:1;stroke-miterlimit:10;" d="M 174.601562 133.78125 L 157.035156 134.453125 "/>
<path style="fill:none;stroke-width:1.2;stroke-linecap:butt;stroke-linejoin:miter;stroke:rgb(0%,0%,0%);stroke-opacity:1;stroke-miterlimit:10;" d="M 188.96875 141.507812 L 174.917969 142.046875 "/>
<path style="fill:none;stroke-width:1.2;stroke-linecap:butt;stroke-linejoin:miter;stroke:rgb(0%,0%,100%);stroke-opacity:1;stroke-miterlimit:10;" d="M 174.917969 142.046875 L 160.867188 142.585938 "/>
<path style="fill:none;stroke-width:1.2;stroke-linecap:butt;stroke-linejoin:miter;stroke:rgb(0%,0%,0%);stroke-opacity:1;stroke-miterlimit:10;" d="M 210.894531 162.859375 L 192.164062 133.109375 "/>
<path style="fill:none;stroke-width:1.2;stroke-linecap:butt;stroke-linejoin:miter;stroke:rgb(0%,0%,100%);stroke-opacity:1;stroke-miterlimit:10;" d="M 157.035156 134.453125 L 148.835938 150 "/>
<path style="fill:none;stroke-width:1.2;stroke-linecap:butt;stroke-linejoin:miter;stroke:rgb(0%,0%,0%);stroke-opacity:1;stroke-miterlimit:10;" d="M 148.835938 150 L 140.636719 165.546875 "/>
<path style=" stroke:none;fill-rule:nonzero;fill:rgb(100%,100%,100%);fill-opacity:1;" d="M 152.035156 125.453125 L 163.035156 125.453125 L 163.035156 143.453125 L 152.035156 143.453125 Z M 152.035156 125.453125 "/>
<g style="fill:rgb(0%,0%,100%);fill-opacity:1;">
  <use xlink:href="#glyph0-1" x="152.035156" y="139.067383"/>
</g>
<path style="fill:none;stroke-width:1.2;stroke-linecap:butt;stroke-linejoin:miter;stroke:rgb(0%,0%,0%);stroke-opacity:1;stroke-miterlimit:10;" d="M 140.636719 165.546875 L 150 180.421875 "/>
<path style="fill:none;stroke-width:1.2;stroke-linecap:butt;stroke-linejoin:miter;stroke:rgb(0%,0%,100%);stroke-opacity:1;stroke-miterlimit:10;" d="M 150 180.421875 L 159.363281 195.296875 "/>
<path style="fill:none;stroke-width:1.2;stroke-linecap:butt;stroke-linejoin:miter;stroke:rgb(0%,0%,0%);stroke-opacity:1;stroke-miterlimit:10;" d="M 149.507812 164.117188 L 157 176.015625 "/>
<path style="fill:none;stroke-width:1.2;stroke-linecap:butt;stroke-linejoin:miter;stroke:rgb(0%,0%,100%);stroke-opacity:1;stroke-miterlimit:10;" d="M 157 176.015625 L 164.492188 187.914062 "/>
<path style="fill:none;stroke-width:1.2;stroke-linecap:butt;stroke-linejoin:miter;stroke:rgb(0%,0%,0%);stroke-opacity:1;stroke-miterlimit:10;" d="M 140.636719 165.546875 L 105.507812 166.890625 "/>
<path style="fill:none;stroke-width:1.2;stroke-linecap:butt;stroke-linejoin:miter;stroke:rgb(0%,0%,100%);stroke-opacity:1;stroke-miterlimit:10;" d="M 159.363281 195.296875 L 176.929688 194.625 "/>
<path style="fill:none;stroke-width:1.2;stroke-linecap:butt;stroke-linejoin:miter;stroke:rgb(0%,0%,0%);stroke-opacity:1;stroke-miterlimit:10;" d="M 176.929688 194.625 L 194.492188 193.953125 "/>
<path style=" stroke:none;fill-rule:nonzero;fill:rgb(100%,100%,100%);fill-opacity:1;" d="M 154.363281 186.296875 L 165.363281 186.296875 L 165.363281 204.296875 L 154.363281 204.296875 Z M 154.363281 186.296875 "/>
<g style="fill:rgb(0%,0%,100%);fill-opacity:1;">
  <use xlink:href="#glyph0-1" x="154.363281" y="199.911133"/>
</g>
<path style="fill:none;stroke-width:1.2;stroke-linecap:butt;stroke-linejoin:miter;stroke:rgb(0%,0%,0%);stroke-opacity:1;stroke-miterlimit:10;" d="M 194.492188 193.953125 L 213.21875 223.703125 "/>
<path style="fill:none;stroke-width:1.2;stroke-linecap:butt;stroke-linejoin:miter;stroke:rgb(0%,0%,0%);stroke-opacity:1;stroke-miterlimit:10;" d="M 203.367188 192.523438 L 218.347656 216.324219 "/>
<path style="fill:none;stroke-width:1.2;stroke-linecap:butt;stroke-linejoin:miter;stroke:rgb(0%,0%,0%);stroke-opacity:1;stroke-miterlimit:10;" d="M 210.894531 162.859375 L 194.492188 193.953125 "/>
<path style="fill:none;stroke-width:1.2;stroke-linecap:butt;stroke-linejoin:miter;stroke:rgb(0%,0%,0%);stroke-opacity:1;stroke-miterlimit:10;" d="M 213.21875 223.703125 L 248.347656 222.359375 "/>
<path style="fill:none;stroke-width:1.2;stroke-linecap:butt;stroke-linejoin:miter;stroke:rgb(0%,0%,0%);stroke-opacity:1;stroke-miterlimit:10;" d="M 248.347656 222.359375 L 264.75 191.265625 "/>
<path style="fill:none;stroke-width:1.2;stroke-linecap:butt;stroke-linejoin:miter;stroke:rgb(0%,0%,0%);stroke-opacity:1;stroke-miterlimit:10;" d="M 242.671875 215.394531 L 255.792969 190.515625 "/>
<path style="fill:none;stroke-width:1.2;stroke-linecap:butt;stroke-linejoin:miter;stroke:rgb(0%,0%,0%);stroke-opacity:1;stroke-miterlimit:10;" d="M 264.75 191.265625 L 246.023438 161.515625 "/>
<path style="fill:none;stroke-width:1.2;stroke-linecap:butt;stroke-linejoin:miter;stroke:rgb(0%,0%,0%);stroke-opacity:1;stroke-miterlimit:10;" d="M 246.023438 161.515625 L 210.894531 162.859375 "/>
<path style="fill:none;stroke-width:1.2;stroke-linecap:butt;stroke-linejoin:miter;stroke:rgb(0%,0%,0%);stroke-opacity:1;stroke-miterlimit:10;" d="M 242.824219 169.917969 L 214.722656 170.992188 "/>
<path style="fill:none;stroke-width:1.2;stroke-linecap:butt;stroke-linejoin:miter;stroke:rgb(0%,0%,0%);stroke-opacity:1;stroke-miterlimit:10;" d="M 105.507812 166.890625 L 86.78125 137.140625 "/>
<path style="fill:none;stroke-width:1.2;stroke-linecap:butt;stroke-linejoin:miter;stroke:rgb(0%,0%,0%);stroke-opacity:1;stroke-miterlimit:10;" d="M 96.632812 168.320312 L 81.652344 144.523438 "/>
<path style="fill:none;stroke-width:1.2;stroke-linecap:butt;stroke-linejoin:miter;stroke:rgb(0%,0%,0%);stroke-opacity:1;stroke-miterlimit:10;" d="M 89.105469 197.984375 L 105.507812 166.890625 "/>
<path style="fill:none;stroke-width:1.2;stroke-linecap:butt;stroke-linejoin:miter;stroke:rgb(0%,0%,0%);stroke-opacity:1;stroke-miterlimit:10;" d="M 86.78125 137.140625 L 51.652344 138.484375 "/>
<path style="fill:none;stroke-width:1.2;stroke-linecap:butt;stroke-linejoin:miter;stroke:rgb(0%,0%,0%);stroke-opacity:1;stroke-miterlimit:10;" d="M 51.652344 138.484375 L 35.25 169.578125 "/>
<path style="fill:none;stroke-width:1.2;stroke-linecap:butt;stroke-linejoin:miter;stroke:rgb(0%,0%,0%);stroke-opacity:1;stroke-miterlimit:10;" d="M 57.328125 145.453125 L 44.207031 170.328125 "/>
<path style="fill:none;stroke-width:1.2;stroke-linecap:butt;stroke-linejoin:miter;stroke:rgb(0%,0%,0%);stroke-opacity:1;stroke-miterlimit:10;" d="M 35.25 169.578125 L 53.976562 199.328125 "/>
<path style="fill:none;stroke-width:1.2;stroke-linecap:butt;stroke-linejoin:miter;stroke:rgb(0%,0%,0%);stroke-opacity:1;stroke-miterlimit:10;" d="M 53.976562 199.328125 L 89.105469 197.984375 "/>
<path style="fill:none;stroke-width:1.2;stroke-linecap:butt;stroke-linejoin:miter;stroke:rgb(0%,0%,0%);stroke-opacity:1;stroke-miterlimit:10;" d="M 57.175781 190.929688 L 85.277344 189.855469 "/>
<path style="fill:none;stroke-width:1.2;stroke-linecap:butt;stroke-linejoin:miter;stroke:rgb(0%,0%,0%);stroke-opacity:1;stroke-miterlimit:10;" d="M 89.105469 197.984375 L 98.46875 212.859375 "/>
<path style="fill:none;stroke-width:1.2;stroke-linecap:butt;stroke-linejoin:miter;stroke:rgb(0%,80%,0%);stroke-opacity:1;stroke-miterlimit:10;" d="M 98.46875 212.859375 L 107.835938 227.734375 "/>
<path style=" stroke:none;fill-rule:nonzero;fill:rgb(100%,100%,100%);fill-opacity:1;" d="M 100.835938 218.734375 L 115.835938 218.734375 L 115.835938 236.734375 L 100.835938 236.734375 Z M 100.835938 218.734375 "/>
<g style="fill:rgb(0%,80%,0%);fill-opacity:1;">
  <use xlink:href="#glyph0-3" x="100.835938" y="232.348633"/>
  <use xlink:href="#glyph0-4" x="111.080078" y="232.348633"/>
</g>
</g>
</svg>

<svg xmlns="http://www.w3.org/2000/svg" xmlns:xlink="http://www.w3.org/1999/xlink" width="300pt" height="300pt" viewBox="0 0 300 300"><defs><symbol overflow="visible"><path d="M.75 2.656v-13.234h7.5V2.656zm.844-.844h5.812V-9.733H1.594zm0 0"/></symbol><symbol overflow="visible" id="a"><path d="M1.47-10.938h2L8.31-1.78v-9.158H9.75V0h-2L2.906-9.14V0H1.47zm0 0"/></symbol><symbol overflow="visible" id="b"><path d="M1.47-10.938h1.483v4.485h5.375v-4.484h1.485V0H8.328v-5.203H2.953V0H1.47zm0 0"/></symbol><symbol overflow="visible" id="c"><path d="M9.656-10.094v1.563c-.5-.47-1.03-.818-1.594-1.048-.562-.227-1.164-.344-1.796-.344-1.25 0-2.21.387-2.875 1.156-.656.762-.984 1.868-.984 3.313 0 1.437.328 2.543.985 3.312C4.056-1.38 5.017-1 6.267-1c.632 0 1.234-.113 1.796-.344.563-.226 1.094-.578 1.594-1.047v1.546c-.51.356-1.058.62-1.64.797C7.44.13 6.832.22 6.187.22c-1.656 0-2.964-.505-3.92-1.517C1.316-2.317.843-3.703.843-5.453c0-1.758.472-3.145 1.422-4.156.957-1.02 2.265-1.53 3.921-1.53.645 0 1.258.09 1.844.265.583.18 1.126.438 1.626.78zm0 0"/></symbol><symbol overflow="visible" id="d"><path d="M1.406-11.39h1.36V0h-1.36zm0 0"/></symbol></defs><g><path fill="#fff" d="M0 0h300v300H0z"/><path d="M189.84 72.266l9.363 14.875" stroke-width="1.2" stroke="#000" stroke-miterlimit="10" fill="none"/><path d="M199.203 87.14l9.363 14.876M208.566 102.016l-8.2 15.546" stroke-width="1.2" stroke="#00f" stroke-miterlimit="10" fill="none"/><path d="M200.367 117.563l-8.203 15.546" stroke-width="1.2" stroke="#000" stroke-miterlimit="10" fill="none"/><path d="M197.566 93.016h23v18h-23zm0 0" fill="#fff"/><g fill="#00f"><use xlink:href="#a" x="197.566" y="106.63"/><use xlink:href="#b" x="208.542" y="106.63"/></g><path d="M192.164 133.11l-17.562.67" stroke-width="1.2" stroke="#000" stroke-miterlimit="10" fill="none"/><path d="M174.602 133.78l-17.567.673" stroke-width="1.2" stroke="#00f" stroke-miterlimit="10" fill="none"/><path d="M188.97 141.508l-14.052.54" stroke-width="1.2" stroke="#000" stroke-miterlimit="10" fill="none"/><path d="M174.918 142.047l-14.05.54" stroke-width="1.2" stroke="#00f" stroke-miterlimit="10" fill="none"/><path d="M210.895 162.86l-18.73-29.75" stroke-width="1.2" stroke="#000" stroke-miterlimit="10" fill="none"/><path d="M157.035 134.453l-8.2 15.547" stroke-width="1.2" stroke="#00f" stroke-miterlimit="10" fill="none"/><path d="M148.836 150l-8.2 15.547" stroke-width="1.2" stroke="#000" stroke-miterlimit="10" fill="none"/><path d="M152.035 125.453h11v18h-11zm0 0" fill="#fff"/><use xlink:href="#a" x="152.035" y="139.067" fill="#00f"/><path d="M140.637 165.547L150 180.422" stroke-width="1.2" stroke="#000" stroke-miterlimit="10" fill="none"/><path d="M150 180.422l9.363 14.875" stroke-width="1.2" stroke="#00f" stroke-miterlimit="10" fill="none"/><path d="M149.508 164.117l7.492 11.9" stroke-width="1.2" stroke="#000" stroke-miterlimit="10" fill="none"/><path d="M157 176.016l7.492 11.898" stroke-width="1.2" stroke="#00f" stroke-miterlimit="10" fill="none"/><path d="M140.637 165.547l-35.13 1.344" stroke-width="1.2" stroke="#000" stroke-miterlimit="10" fill="none"/><path d="M159.363 195.297l17.567-.672" stroke-width="1.2" stroke="#00f" stroke-miterlimit="10" fill="none"/><path d="M176.93 194.625l17.562-.672" stroke-width="1.2" stroke="#000" stroke-miterlimit="10" fill="none"/><path d="M154.363 186.297h11v18h-11zm0 0" fill="#fff"/><use xlink:href="#a" x="154.363" y="199.911" fill="#00f"/><path d="M194.492 193.953l18.727 29.75M203.367 192.523l14.98 23.8M210.895 162.86l-16.403 31.093M213.22 223.703l35.128-1.344M248.348 222.36l16.402-31.094M242.672 215.395l13.12-24.88M264.75 191.266l-18.727-29.75M246.023 161.516l-35.128 1.343M242.824 169.918l-28.1 1.074M105.508 166.89L86.78 137.14M96.633 168.32l-14.98-23.797M89.105 197.984l16.403-31.093M86.78 137.14l-35.128 1.344M51.652 138.484L35.25 169.578M57.328 145.453l-13.12 24.875M35.25 169.578l18.727 29.75M53.977 199.328l35.128-1.344M57.176 190.93l28.1-1.075M89.105 197.984l9.364 14.875" stroke-width="1.2" stroke="#000" stroke-miterlimit="10" fill="none"/><path d="M98.47 212.86l9.366 14.874" stroke-width="1.2" stroke="#0c0" stroke-miterlimit="10" fill="none"/><path d="M100.836 218.734h15v18h-15zm0 0" fill="#fff"/><g fill="#0c0"><use xlink:href="#c" x="100.836" y="232.349"/><use xlink:href="#d" x="111.08" y="232.349"/></g></g></svg>
